public/assets/standards/rtc/feat-icon-3.svg

<svg width="68" height="68" viewBox="0 0 68 68" fill="none" xmlns="http://www.w3.org/2000/svg">
<g clip-path="url(#clip0_79_7494)">
<path d="M34 58.14C47.3321 58.14 58.14 47.3321 58.14 34C58.14 20.6678 47.3321 9.85999 34 9.85999C20.6678 9.85999 9.85999 20.6678 9.85999 34C9.85999 47.3321 20.6678 58.14 34 58.14Z" fill="#006D68"/>
<path d="M54.97 34C54.97 34 45.58 47.39 34 47.39C22.42 47.39 13.03 34 13.03 34C13.03 34 22.42 20.61 34 20.61C45.58 20.61 54.97 34 54.97 34Z" fill="white"/>
<path d="M34 41.23C38.0648 41.23 41.36 37.9348 41.36 33.87C41.36 29.8052 38.0648 26.51 34 26.51C29.9352 26.51 26.64 29.8052 26.64 33.87C26.64 37.9348 29.9352 41.23 34 41.23Z" fill="#006D68"/>
<path d="M2.00001 23.43C1.18001 23.43 0.51001 22.76 0.51001 21.94V2.00001C0.51001 1.17001 1.18001 0.51001 2.00001 0.51001H21.93C22.75 0.51001 23.42 1.18001 23.42 2.00001C23.42 2.82001 22.75 3.49001 21.93 3.49001H3.49001V21.93C3.49001 22.76 2.82001 23.42 2.00001 23.42V23.43Z" fill="#A5C352"/>
<path d="M21.93 67.49H2.00001C1.18001 67.49 0.51001 66.82 0.51001 66V46.07C0.51001 45.24 1.18001 44.58 2.00001 44.58C2.82001 44.58 3.49001 45.25 3.49001 46.07V64.51H21.93C22.75 64.51 23.42 65.18 23.42 66C23.42 66.82 22.75 67.49 21.93 67.49Z" fill="#A5C352"/>
<path d="M66 67.49H46.07C45.25 67.49 44.58 66.82 44.58 66C44.58 65.18 45.25 64.51 46.07 64.51H64.51V46.07C64.51 45.24 65.18 44.58 66 44.58C66.82 44.58 67.49 45.25 67.49 46.07V66C67.49 66.83 66.82 67.49 66 67.49Z" fill="#A5C352"/>
<path d="M66 23.43C65.18 23.43 64.51 22.76 64.51 21.94V3.49001H46.07C45.25 3.49001 44.58 2.82001 44.58 2.00001C44.58 1.18001 45.25 0.51001 46.07 0.51001H66C66.82 0.51001 67.49 1.18001 67.49 2.00001V21.93C67.49 22.76 66.82 23.42 66 23.42V23.43Z" fill="#A5C352"/>
</g>
<defs>
<clipPath id="clip0_79_7494">
<rect width="68" height="68" fill="white"/>
</clipPath>
</defs>
</svg>

<svg xmlns="http://www.w3.org/2000/svg" width="68" height="68" fill="none" viewBox="0 0 68 68"><g clip-path="url(#a)"><path fill="#006d68" d="M34 58.14c13.332 0 24.14-10.808 24.14-24.14S47.332 9.86 34 9.86 9.86 20.668 9.86 34 20.668 58.14 34 58.14"/><path fill="#fff" d="M54.97 34S45.58 47.39 34 47.39 13.03 34 13.03 34 22.42 20.61 34 20.61 54.97 34 54.97 34"/><path fill="#006d68" d="M34 41.23a7.36 7.36 0 1 0 0-14.72 7.36 7.36 0 0 0 0 14.72"/><path fill="#a5c352" d="M2 23.43c-.82 0-1.49-.67-1.49-1.49V2C.51 1.17 1.18.51 2 .51h19.93c.82 0 1.49.67 1.49 1.49s-.67 1.49-1.49 1.49H3.49v18.44c0 .83-.67 1.49-1.49 1.49zm19.93 44.06H2c-.82 0-1.49-.67-1.49-1.49V46.07c0-.83.67-1.49 1.49-1.49s1.49.67 1.49 1.49v18.44h18.44c.82 0 1.49.67 1.49 1.49s-.67 1.49-1.49 1.49m44.07 0H46.07c-.82 0-1.49-.67-1.49-1.49s.67-1.49 1.49-1.49h18.44V46.07c0-.83.67-1.49 1.49-1.49s1.49.67 1.49 1.49V66c0 .83-.67 1.49-1.49 1.49m0-44.06c-.82 0-1.49-.67-1.49-1.49V3.49H46.07c-.82 0-1.49-.67-1.49-1.49S45.25.51 46.07.51H66c.82 0 1.49.67 1.49 1.49v19.93c0 .83-.67 1.49-1.49 1.49z"/></g><defs><clipPath id="a"><path fill="#fff" d="M0 0h68v68H0z"/></clipPath></defs></svg>
